X: 334
T: Jewish Bulgar
R: bulgar
O:
Q: 1/4=144
B: German Goldenshteyn "Shpilt klezmorimlach klingen zoln di gesalach" New York 2003 v.3 #34
Z: 2012 John Chambers <jc:trillian.mit.edu>
M: 2/4
L: 1/8
K: G
d2 |\
g4- | ga bg | a4- | a4 | ab c'd' | bg af | g3 d' | =f'/e'/d' ^c'd' |
gg gd | gabg | a4- | a4 | ab c'd' | bg af | g4 | b4 |
ef ga | b^c' d'/c'/b | ^c' d'3 | z^c'd'^d' | e'=d' ^c'b | ^ag fg | ^a b2 a | (b/^a/)g (g/f/)e |
ef ga | b^c' d'/c'/b | e'4 | zegb | e'd' ^c'b | ^ag fg | e4 | zegb |
e'd' ^c'b | ^ag fg | ^a b3 | zegb | e'd' ^c'b | ^ag fg | (3eBe geg | bgb e'2 |
e'd' ^c'b | ^ag fg | a4 | c'4 | be fg | ^ag fg | ez bz | e'z z2 |]
